packages/icons/svg/Universe_Garden1_48px.svg

<svg xmlns="http://www.w3.org/2000/svg" viewBox="0 0 48 48"><path d="M20.71 27.38A9 9 0 0116 23.09a1 1 0 00-1.8.91 11 11 0 005.8 5.24.92.92 0 00.36.07 1 1 0 00.37-1.93z"/><path d="M41.56 41.44l-9.35-9.36a15.24 15.24 0 007-12.83v-.29a1.5 1.5 0 00-1.5-1.46H10.26a1.61 1.61 0 00-1.5 1.5 1.93 1.93 0 000 .24 15.24 15.24 0 007 12.83l-9.32 9.37a1.49 1.49 0 000 2.12 1.5 1.5 0 002.12 0L18.62 33.5a14.76 14.76 0 003.88.92v8.08a1.5 1.5 0 003 0v-8.08a14.76 14.76 0 003.88-.92l10.06 10.06a1.5 1.5 0 002.12 0 1.49 1.49 0 000-2.12zM11.82 20.5h24.37a12.25 12.25 0 01-24.37 0zM23.19 14.41A1 1 0 0024 16a1 1 0 00.81-.41 5.56 5.56 0 000-6.18 3.52 3.52 0 010-3.82 1 1 0 00-1.62-1.18 5.56 5.56 0 000 6.18 3.52 3.52 0 010 3.82zM18.22 12.37a1 1 0 001.56 1.26 3.51 3.51 0 000-4.26 1.47 1.47 0 010-1.74 1 1 0 10-1.56-1.26 3.51 3.51 0 000 4.26 1.47 1.47 0 010 1.74zM28.22 12.37a1 1 0 001.56 1.26 3.51 3.51 0 000-4.26 1.47 1.47 0 010-1.74 1 1 0 10-1.56-1.26 3.51 3.51 0 000 4.26 1.47 1.47 0 010 1.74z"/></svg>

<svg xmlns="http://www.w3.org/2000/svg" viewBox="0 0 48 48"><defs></defs><g id="Icon"><path  d="M20.71,27.38A9,9,0,0,1,16,23.09,1,1,0,0,0,14.2,24,11,11,0,0,0,20,29.24a.92.92,0,0,0,.36.07,1,1,0,0,0,.37-1.93Z"/><path  d="M41.56,41.44l-9.35-9.36a15.24,15.24,0,0,0,7-12.83c0-.08,0-.16,0-.29a1.5,1.5,0,0,0-1.5-1.46H10.26A1.61,1.61,0,0,0,8.76,19a1.93,1.93,0,0,0,0,.24,15.24,15.24,0,0,0,7,12.83L6.44,41.44a1.49,1.49,0,0,0,0,2.12,1.5,1.5,0,0,0,2.12,0L18.62,33.5a14.76,14.76,0,0,0,3.88.92V42.5a1.5,1.5,0,0,0,3,0V34.42a14.76,14.76,0,0,0,3.88-.92L39.44,43.56a1.5,1.5,0,0,0,2.12,0A1.49,1.49,0,0,0,41.56,41.44ZM11.82,20.5H36.19a12.25,12.25,0,0,1-24.37,0Z"/><path  d="M23.19,14.41A1,1,0,0,0,24,16a1,1,0,0,0,.81-.41,5.56,5.56,0,0,0,0-6.18,3.52,3.52,0,0,1,0-3.82,1,1,0,0,0-1.62-1.18,5.56,5.56,0,0,0,0,6.18A3.52,3.52,0,0,1,23.19,14.41Z"/><path  d="M18.22,12.37a1,1,0,0,0,1.56,1.26,3.51,3.51,0,0,0,0-4.26,1.47,1.47,0,0,1,0-1.74,1,1,0,1,0-1.56-1.26,3.51,3.51,0,0,0,0,4.26A1.47,1.47,0,0,1,18.22,12.37Z"/><path  d="M28.22,12.37a1,1,0,0,0,1.56,1.26,3.51,3.51,0,0,0,0-4.26,1.47,1.47,0,0,1,0-1.74,1,1,0,1,0-1.56-1.26,3.51,3.51,0,0,0,0,4.26A1.47,1.47,0,0,1,28.22,12.37Z"/></g></svg>
